X: 575
T: Folding Down the Sheets
B: jims roots
M:C
L:1/8
R: Reel
Q: 1/4=100
K:D
V:1 
%Z:John Lamancusa
%D:Jake Krack, Home at Last
ag|:"D"fdfa "A"ecAc|"D"dABd A2 dc|"G"BGBd "D"Aceg|"A"fdfa e2 ag|
"D"fdfa "A"ecAc|"D"dABd A2 dc|"G"BGBd "D"AFDF|[1 "A"EDCE "D"D2 ag:|[2 "A"EDCE "D"D2 cd||
|: "A" e3 f gfgf | ec A2 [c2a2] [c2a2] |  e2 ef "G" gfeg | "A" fdec "D" [d2F] [d2F] |
"A" e3 f gfgf | ec A2 [c2a2] [c2a2] | c2 [ca][ca] "G" B2 [Bg][Bg] | [1 "A" fdec "D" [f2d2]cd:|[2 "A"faec "D"d4|]
% abcbook-tune_id 6298c25dd80b8b14b3affcd3


% abcbook-boost 0
% abcbook-tablature 
% abcbook-transpose 
% abcbook-lastupdated 1654178398071
% abcbook-soundfonts 
% abcbook-repeats 1


